app/img/svg/logotype-white-tablet.svg

<svg xmlns="http://www.w3.org/2000/svg" width="293" height="81"><defs><clipPath id="cp1"><path d="M0 0h293v81H0z"/></clipPath></defs><style></style><g id="Page 1" clip-path="url(#cp1)"><path id="Path 1" fill-rule="evenodd" d="M143.75 37.57c0-1.42 1.16-2.58 2.51-2.58h14.36c10.17 0 16.87 5.41 16.87 14.3v.12c0 9.73-8.11 14.75-17.71 14.75h-10.94v13.65c0 1.42-1.16 2.58-2.58 2.58-1.35 0-2.51-1.16-2.51-2.58V37.57zm16.23 21.96c7.46 0 12.36-3.99 12.36-9.92v-.12c0-6.44-4.83-9.79-12.11-9.79h-11.39v19.83h11.14zm27.23-22.28c0-1.42 1.15-2.58 2.51-2.58 1.41 0 2.57 1.16 2.57 2.58v40.56c0 1.42-1.16 2.58-2.57 2.58-1.36 0-2.51-1.16-2.51-2.58V37.25zm18.28.06c0-1.35 1.16-2.51 2.51-2.51h.71c1.16 0 1.87.58 2.57 1.48l27.37 34.9v-34c0-1.35 1.1-2.51 2.51-2.51 1.36 0 2.45 1.16 2.45 2.51v40.7c0 1.35-.96 2.38-2.31 2.38h-.26c-1.1 0-1.87-.64-2.64-1.54l-27.95-35.74v34.9c0 1.35-1.09 2.51-2.51 2.51-1.35 0-2.45-1.16-2.45-2.51V37.31zm50.86-.06c0-1.42 1.16-2.58 2.51-2.58 1.42 0 2.57 1.16 2.57 2.58v24.66l25.7-26.34c.58-.51 1.16-.9 1.99-.9 1.35 0 2.45 1.23 2.45 2.51 0 .71-.32 1.29-.84 1.81l-15.97 15.84 17.13 21.12c.45.58.71 1.09.71 1.87 0 1.35-1.15 2.57-2.57 2.57-.97 0-1.61-.51-2.06-1.16l-16.8-20.92-9.73 9.72v9.79c0 1.41-1.16 2.57-2.57 2.57-1.36 0-2.52-1.16-2.52-2.57V37.25zM118.07 59.93c-.02 0-.05.01-.07.01h-7.96C108.55 71.79 98.43 81 86.18 81s-22.37-9.21-23.85-21.06H58.7C57.22 71.79 47.1 81 34.85 81c-12.25 0-22.38-9.21-23.86-21.06H3.03c-.03 0-.05-.01-.07-.01-1.79 0-3.39-1.43-2.86-3.65.01-.02 10.35-42.73 10.35-42.73.73-4.7 5.19-13.3 17.2-13.3 1.66 0 3 1.34 3 3s-1.34 3-3 3c-9.71 0-11.15 7.46-11.28 8.28L6.84 53.94h4.15c1.48-11.86 11.6-21.07 23.85-21.07 12.25 0 22.37 9.21 23.85 21.07h3.64c1.49-11.86 11.61-21.07 23.86-21.07s22.37 9.21 23.85 21.07h4.15l-9.54-39.41c-.12-.82-1.56-8.28-11.27-8.28-1.66 0-3-1.34-3-3s1.34-3 3-3c12.01 0 16.47 8.6 17.19 13.3 0 0 10.35 42.71 10.35 42.73.54 2.22-1.06 3.65-2.85 3.65zM52.9 56.94c0-1.03-.11-2.03-.27-3-1.43-8.55-8.84-15.07-17.79-15.07s-16.36 6.52-17.79 15.07c-.17.97-.27 1.97-.27 3 0 1.02.1 2.02.27 3C18.48 68.48 25.89 75 34.84 75s16.36-6.52 17.79-15.06c.16-.98.27-1.98.27-3zm51.35 0c0-1.03-.11-2.03-.27-3-1.43-8.55-8.84-15.07-17.79-15.07S69.83 45.39 68.4 53.94c-.17.97-.27 1.97-.27 3 0 1.02.1 2.02.27 3C69.83 68.48 77.24 75 86.19 75s16.36-6.52 17.79-15.06c.16-.98.27-1.98.27-3z" fill="#fff"/></g></svg>

<svg xmlns="http://www.w3.org/2000/svg" viewBox="0 0 293 81" width="293" height="81"><defs><clipPath clipPathUnits="userSpaceOnUse" id="cp1"><path d="M0 0L293 0L293 81L0 81Z" /></clipPath></defs><style>tspan { white-space:pre }.shp0 { fill: #ffffff }</style><g id="Page 1" clip-path="url(#cp1)"><path id="Path 1" fill-rule="evenodd" class="shp0" d="M143.75 37.57C143.75 36.15 144.91 34.99 146.26 34.99L160.62 34.99C170.79 34.99 177.49 40.4 177.49 49.29L177.49 49.41C177.49 59.14 169.38 64.16 159.78 64.16L148.84 64.16L148.84 77.81C148.84 79.23 147.68 80.39 146.26 80.39C144.91 80.39 143.75 79.23 143.75 77.81L143.75 37.57L143.75 37.57ZM159.98 59.53C167.44 59.53 172.34 55.54 172.34 49.61L172.34 49.49C172.34 43.05 167.51 39.7 160.23 39.7L148.84 39.7L148.84 59.53L159.98 59.53L159.98 59.53ZM187.21 37.25C187.21 35.83 188.36 34.67 189.72 34.67C191.13 34.67 192.29 35.83 192.29 37.25L192.29 77.81C192.29 79.23 191.13 80.39 189.72 80.39C188.36 80.39 187.21 79.23 187.21 77.81L187.21 37.25ZM205.49 37.31C205.49 35.96 206.65 34.8 208 34.8L208.71 34.8C209.87 34.8 210.58 35.38 211.28 36.28L238.65 71.18L238.65 37.18C238.65 35.83 239.75 34.67 241.16 34.67C242.52 34.67 243.61 35.83 243.61 37.18L243.61 77.88C243.61 79.23 242.65 80.26 241.3 80.26L241.04 80.26C239.94 80.26 239.17 79.62 238.4 78.72L210.45 42.98L210.45 77.88C210.45 79.23 209.36 80.39 207.94 80.39C206.59 80.39 205.49 79.23 205.49 77.88L205.49 37.31L205.49 37.31ZM256.35 37.25C256.35 35.83 257.51 34.67 258.86 34.67C260.28 34.67 261.43 35.83 261.43 37.25L261.43 61.91L287.13 35.57C287.71 35.06 288.29 34.67 289.12 34.67C290.47 34.67 291.57 35.9 291.57 37.18C291.57 37.89 291.25 38.47 290.73 38.99L274.76 54.83L291.89 75.95C292.34 76.53 292.6 77.04 292.6 77.82C292.6 79.17 291.45 80.39 290.03 80.39C289.06 80.39 288.42 79.88 287.97 79.23L271.17 58.31L261.44 68.03L261.44 77.82C261.44 79.23 260.28 80.39 258.87 80.39C257.51 80.39 256.35 79.23 256.35 77.82L256.35 37.25L256.35 37.25ZM118.07 59.93C118.05 59.93 118.02 59.94 118 59.94L110.04 59.94C108.55 71.79 98.43 81 86.18 81C73.93 81 63.81 71.79 62.33 59.94L58.7 59.94C57.22 71.79 47.1 81 34.85 81C22.6 81 12.47 71.79 10.99 59.94L3.03 59.94C3 59.94 2.98 59.93 2.96 59.93C1.17 59.93 -0.43 58.5 0.1 56.28C0.11 56.26 10.45 13.55 10.45 13.55C11.18 8.85 15.64 0.25 27.65 0.25C29.31 0.25 30.65 1.59 30.65 3.25C30.65 4.91 29.31 6.25 27.65 6.25C17.94 6.25 16.5 13.71 16.37 14.53L6.84 53.94L10.99 53.94C12.47 42.08 22.59 32.87 34.84 32.87C47.09 32.87 57.21 42.08 58.69 53.94L62.33 53.94C63.82 42.08 73.94 32.87 86.19 32.87C98.44 32.87 108.56 42.08 110.04 53.94L114.19 53.94L104.65 14.53C104.53 13.71 103.09 6.25 93.38 6.25C91.72 6.25 90.38 4.91 90.38 3.25C90.38 1.59 91.72 0.25 93.38 0.25C105.39 0.25 109.85 8.85 110.57 13.55C110.57 13.55 120.92 56.26 120.92 56.28C121.46 58.5 119.86 59.93 118.07 59.93ZM52.9 56.94C52.9 55.91 52.79 54.91 52.63 53.94C51.2 45.39 43.79 38.87 34.84 38.87C25.89 38.87 18.48 45.39 17.05 53.94C16.88 54.91 16.78 55.91 16.78 56.94C16.78 57.96 16.88 58.96 17.05 59.94C18.48 68.48 25.89 75 34.84 75C43.79 75 51.2 68.48 52.63 59.94C52.79 58.96 52.9 57.96 52.9 56.94ZM104.25 56.94C104.25 55.91 104.14 54.91 103.98 53.94C102.55 45.39 95.14 38.87 86.19 38.87C77.24 38.87 69.83 45.39 68.4 53.94C68.23 54.91 68.13 55.91 68.13 56.94C68.13 57.96 68.23 58.96 68.4 59.94C69.83 68.48 77.24 75 86.19 75C95.14 75 102.55 68.48 103.98 59.94C104.14 58.96 104.25 57.96 104.25 56.94Z" /></g></svg>
